X:263
T: Mianxiang sijige
N: C1760
O: China, Shandong Boxing
S: III, 331]
R: Xiaodiao]
M: 2/4
L: 1/16
K: G
e2eBe4 | g4e2d2 | dAB2z4 |
d3eg2a2 | eddAB4 |
dd2eg2ed | dd2gedBA | BG2AB2f2 | fffde4

